images/icon-services-6.svg

<svg width="48" height="48" viewBox="0 0 48 48" fill="none" xmlns="http://www.w3.org/2000/svg">
<g clip-path="url(#clip0_323_128)">
<path d="M18.1024 22.0797L15.6088 23.0781C14.7567 23.4165 13.7917 23 13.4533 22.148C13.2798 21.7111 13.2997 21.2211 13.508 20.7997L14.0576 19.7005C14.3657 19.0844 14.2448 18.3403 13.7576 17.8533L9.9312 14.0269L10.9656 12.9925C11.2779 12.6801 11.2779 12.1737 10.9656 11.8613L8.3312 9.22698L8.5656 8.99258C8.8719 8.68648 8.879 8.19218 8.5816 7.87738L1.3816 0.250984C1.0782 -0.0703162 0.5719 -0.0847161 0.2507 0.218684C0.0908 0.369684 0.0001 0.579784 0 0.799684V11.1997C0 11.4353 0.1039 11.6589 0.284 11.8109L2.684 13.8397C3.0016 14.1078 3.4717 14.088 3.7656 13.7941L4 13.5573L6.6344 16.1917C6.9468 16.504 7.4532 16.504 7.7656 16.1917L8.8 15.1573L12.6264 18.9837L12.08 20.0797C11.2758 21.6891 11.9286 23.6457 13.538 24.4498C14.3707 24.8659 15.3415 24.9058 16.2056 24.5597L18.7008 23.5621L18.1024 22.0797ZM3.4344 11.8629L3.1544 12.1429L1.6 10.8285V2.81248L6.8848 8.41248L6.6344 8.66288L3.4344 11.8629ZM7.2 14.4949L5.1312 12.4261L7.2 10.3573L9.2688 12.4285L7.2 14.4949Z" fill="#0E384C"/>
<path d="M47.5068 23.2605C47.2078 23.1366 46.8636 23.2052 46.6348 23.4341L35.4348 34.6341C35.1225 34.9465 35.1225 35.4529 35.4348 35.7653L36.0692 36.3997L32.93 39.5389C31.6883 38.7776 30.2568 38.3827 28.8004 38.3997C25.2716 38.3997 22.4004 40.5525 22.4004 43.1997C22.4004 45.8469 25.2716 47.9997 28.8004 47.9997C32.3292 47.9997 35.2004 45.8469 35.2004 43.1997C35.1845 42.2269 34.8122 41.2938 34.154 40.5773L37.2004 37.5309L37.8348 38.1653C38.1472 38.4776 38.6536 38.4776 38.966 38.1653L47.766 29.3653C47.916 29.2153 48.0004 29.0119 48.0004 28.7997V23.9997C48.0005 23.6762 47.8057 23.3845 47.5068 23.2605ZM28.8004 46.3997C26.1988 46.3997 24.0004 44.9341 24.0004 43.1997C24.0004 41.4653 26.1988 39.9997 28.8004 39.9997C31.402 39.9997 33.6004 41.4653 33.6004 43.1997C33.6004 44.9341 31.402 46.3997 28.8004 46.3997ZM46.4004 28.4685L38.4004 36.4685L37.1316 35.1997L46.4004 25.9309V28.4685Z" fill="#0E384C"/>
<path d="M27.5834 27.0349C27.253 25.056 25.3809 23.7195 23.4019 24.05C21.8716 24.3055 20.6725 25.5046 20.417 27.0349L18.0002 41.5357C17.8191 42.6204 16.793 43.3529 15.7083 43.1719C14.8483 43.0283 14.1817 42.342 14.0634 41.4781L11.993 26.2917C11.9782 26.1781 11.9392 26.0689 11.8786 25.9717L11.4338 25.2597C10.079 23.0937 9.1024 20.7131 8.5458 18.2197L6.9834 18.5685C7.5804 21.2403 8.6277 23.7911 10.0802 26.1117L10.4338 26.6781L12.4818 41.6941C12.7493 43.6589 14.5589 45.0349 16.5237 44.7674C18.0831 44.5551 19.3225 43.3521 19.581 41.7997L21.9978 27.2989C22.1583 26.3181 23.0064 25.5984 24.0002 25.5997C24.9953 25.5969 25.8451 26.3169 26.0058 27.2989L27.6114 36.9317L29.189 36.6677L27.5834 27.0349Z" fill="#1E84B5"/>
<path d="M31.5074 3.19991C30.1408 3.19991 28.7885 3.47751 27.5324 4.01571C25.2759 4.97731 22.7249 4.97731 20.4684 4.01571C16.5046 2.31691 11.8993 3.32431 9.00684 6.52291L10.194 7.59971C11.8047 5.81951 14.0925 4.80261 16.4932 4.79971C17.6432 4.79841 18.7814 5.03201 19.838 5.48611C22.497 6.62051 25.5038 6.62051 28.1628 5.48611C32.4742 3.63881 37.4667 5.63631 39.314 9.94771C39.7669 11.0047 40.0004 12.1426 40.0004 13.2925C40.0018 17.526 38.8119 21.6745 36.5668 25.2637L36.122 25.9757C36.0614 26.0729 36.0224 26.1821 36.0076 26.2957L35.3532 31.0957L36.938 31.3117L37.57 26.6821L37.9236 26.1157C40.3284 22.2711 41.6025 17.8273 41.6004 13.2925C41.6003 7.71841 37.0815 3.19981 31.5074 3.19991Z" fill="#1E84B5"/>
</g>
<defs>
<clipPath id="clip0_323_128">
<rect width="48" height="48" fill="white"/>
</clipPath>
</defs>
</svg>

<svg xmlns="http://www.w3.org/2000/svg" width="48" height="48" fill="none" viewBox="0 0 48 48"><g clip-path="url(#a)"><path fill="#0e384c" d="m18.102 22.08-2.493.998a1.66 1.66 0 0 1-2.101-2.278l.55-1.1a1.6 1.6 0 0 0-.3-1.847L9.93 14.027l1.035-1.034a.8.8 0 0 0 0-1.132L8.33 9.227l.235-.234a.8.8 0 0 0 .016-1.116L1.382.251A.8.8 0 0 0 0 .8v10.4a.8.8 0 0 0 .284.61l2.4 2.03a.8.8 0 0 0 1.082-.046L4 13.557l2.634 2.635a.8.8 0 0 0 1.132 0L8.8 15.157l3.826 3.827-.546 1.096a3.257 3.257 0 0 0 4.126 4.48l2.495-.998zM3.434 11.863l-.28.28L1.6 10.828V2.813l5.285 5.6-.25.25zM7.2 14.495l-2.069-2.069L7.2 10.357l2.069 2.072zm40.307 8.765a.8.8 0 0 0-.872.174l-11.2 11.2a.8.8 0 0 0 0 1.131l.634.635-3.139 3.139a7.73 7.73 0 0 0-4.13-1.14c-3.528 0-6.4 2.154-6.4 4.8 0 2.648 2.872 4.8 6.4 4.8 3.53 0 6.4-2.152 6.4-4.8a3.97 3.97 0 0 0-1.046-2.622l3.046-3.046.635.634a.8.8 0 0 0 1.131 0l8.8-8.8A.8.8 0 0 0 48 28.8V24a.8.8 0 0 0-.493-.74M28.8 46.4c-2.601 0-4.8-1.466-4.8-3.2s2.2-3.2 4.8-3.2 4.8 1.465 4.8 3.2c0 1.734-2.198 3.2-4.8 3.2m17.6-17.931-8 8-1.268-1.27 9.268-9.268z"/><path fill="#1e84b5" d="M27.583 27.035a3.633 3.633 0 0 0-7.166 0L18 41.535a1.991 1.991 0 0 1-3.937-.057l-2.07-15.186a.8.8 0 0 0-.114-.32l-.445-.712a22.5 22.5 0 0 1-2.888-7.04l-1.563.349a24.1 24.1 0 0 0 3.097 7.543l.354.566 2.048 15.016a3.59 3.59 0 0 0 7.099.106l2.417-14.501c.16-.98 1.008-1.7 2.002-1.7a2.026 2.026 0 0 1 2.006 1.7l1.605 9.633 1.578-.264zM31.507 3.2c-1.366 0-2.719.278-3.975.816a9 9 0 0 1-7.064 0A10.09 10.09 0 0 0 9.007 6.523L10.194 7.6a8.5 8.5 0 0 1 6.3-2.8 8.45 8.45 0 0 1 3.344.686 10.6 10.6 0 0 0 8.325 0A8.493 8.493 0 0 1 40 13.293a22.56 22.56 0 0 1-3.433 11.97l-.445.713a.8.8 0 0 0-.114.32l-.655 4.8 1.585.216.632-4.63.354-.566A24.16 24.16 0 0 0 41.6 13.293C41.6 7.718 37.081 3.2 31.507 3.2"/></g><defs><clipPath id="a"><path fill="#fff" d="M0 0h48v48H0z"/></clipPath></defs></svg>
